X:82
T:Proudlock's Hornpipe
R:hornpipe
C:James Hill (1811-1853) (?)
Z:id:hn-hornpipe-82
M:C|
K:G
(3DEF|GFGB AGAB|G2gf gedc|(3Bcd BG (3ABc AF|GFGA GFED|
GFGB AGAB|G2gf gedc|(3Bcd BG (3ABc AF|G2GF G2:|
|:Bc|dedc BGAB|cdcB A2Bc|dedc B2g2|agfe dcBA|
GFGB AGAB|G2gf gedc|(3Bcd BG (3ABc AF|G2GF G2:|
<end>
<start>
